!!!!SEGMENT: pl-wtm--r-1461--018_stefani-jozef--wszechstronne-cwiczenia-glosowe-allegro.krn
!!!cenid: 18xx:2195
!!!COM: Stefani, Józef
!!!COM-rismid: pe30024097
!!!CDT: 1800/04/16-1876/03/19
!!!CNT: Polish
!!!GTL: Wszechstronne ćwiczenia głosowe
!!!OTL: Allegro
!!!PDT:
!!!AGN: Secular
!!!SMS-siglum: PL-Wtm
!!!SMS-shelfmark: R 1461
!!!SMS-shelfwork: 018 G
!!!SMS-variant:
!!!SMS-altvar:
!!!NIFC-rismid: 1001120710
!!!URL-scan: http://repozytorium.nifc.pl/skany/pl-wtm-nut--r1461
!!!ONB-nifc: UWAGA: skan 0015, s. 27 – 0016, s. 28
!!!OMD: Allegro
!!!key:
**kern	**kern	**kern	**text	**dynam
*part3	*part2	*part1	*part1	*part1
*staff3	*staff2	*staff1	*staff1	*
*Iforte	*Iforte	*Itenor	*	*
*I"Fortepian	*I"Fortepian	*I"Sopran / Tenor	*	*
*clefF4	*clefG2	*clefG2	*	*
*k[]	*k[]	*k[]	*	*
*C:	*C:	*C:	*	*
*M2/2	*M2/2	*M2/2	*	*
*met(c|)	*met(c|)	*met(c|)	*	*
=1	=1	=1	=1	=1
*all\right	*all\right	*all\right	*	*
[<1C [1CC	[1c [1G< [1E<^>	(8c/L	a-	.
.	.	8d/	.	.
.	.	8c/	.	<
.	.	8d/J	.	.
.	.	8e/L	.	.
.	.	8f/	.	.
.	.	8e/	.	.
.	.	8f/J)	.	[[
=2	=2	=2	=2	=2
4C] 4CC\]	4c] 4G<] 4E</]	4g/	.	.
4E 4EE\	4g 4c 4G<^>/	4r	.	.
4D 4DD\	4f 4B 4G<^>/	2r	.	.
4C 4CC\	4e 4c 4G<^>/	.	.	.
=3	=3	=3	=3	=3
1F 1FF	1d 1A<^>	(8d/L	-a-	.
.	.	8e/	.	<
.	.	8d/	.	.
.	.	8e/J	.	.
.	.	8f/L	.	.
.	.	8g/	.	.
.	.	8f/	.	.
.	.	8g/J)	.	.
=4	=4	=4	=4	=4
4F 4FF\	4d 4A</	4a/	.	[
4F 4FF\	4a 4d 4A<^>/	4r	.	.
4E 4EE\	4g 4c#X 4A<^>/	2r	.	.
4D 4DD\	4f 4d 4A<^>/	.	.	.
!!LO:LB:g=original
=5	=5	=5	=5	=5
[1G [1GG	[1e [>1B-X	(8e/L	-a	.
.	.	8f/	.	<
.	.	8e/	.	.
.	.	8f/J	.	.
.	.	8g/L	.	.
.	.	8a/	.	.
.	.	8g/	.	.
.	.	8a/J)	.	[[
=6	=6	=6	=6	=6
4G] 4GG\]	4e] 4B-X] 4G</	4b-X/	.	.
4G 4GG\	4b-X 4g 4c/	4r	.	.
4F 4FF\	4a 4f 4c/	2r	.	.
4B-X 4BB-X\	4g 4e 4c/	.	.	.
=7	=7	=7	=7	=7
1A 1AA	1f 1c	(8f/L	a-	.
!	!	!	!	!LO:HP:b
.	.	8g/	.	<
.	.	8f/	.	.
.	.	8g/J	.	.
.	.	8a/L	.	.
.	.	8b-X/	.	.
.	.	8a/	.	.
.	.	8b-/J)	.	[[
=8	=8	=8	=8	=8
4A 4AA\	4f 4c 4A</	4cc\	.	.
4A 4AA\	4cc 4f 4c/	4r	.	.
4G 4GG/	4b-X 4e 4c/	2r	.	.
4F 4FF/	4a 4f 4c/	.	.	.
!!LO:LB:g=original
=9	=9	=9	=9	=9
1F 1FF	1g 1d 1Bn	(8g/L	-a-	.
.	.	8a/	.	.
.	.	8g/	.	.
.	.	8a/J	.	.
.	.	8bn\L	.	.
.	.	8cc\	.	.
.	.	8b\	.	.
.	.	8cc\J)	.	.
=10	=10	=10	=10	=10
*2\right	*	*2\right	*	*
2F 2FF\	2g 2d 2B/	2dd\	.	.
2D 2DD/	2b 2g 2f 2d/	2b\	.	.
=11	=11	=11	=11	=11
4C 4CC/	4cc 4g 4e/	(8cc\L	-a	.
.	.	8dd\	.	.
4r	4r	8cc\	.	.
.	.	8dd\J	.	.
4C 4CC/	4ee 4cc 4g/	8ee\L	.	.
.	.	8ff\	.	.
4r	4r	8ee\	.	.
.	.	8ff\J)	.	.
=12	=12	=12	=12	=12
4C 4CC/	4gg 4ee 4cc 4g\	(8gg\L	.	.
.	.	8ff\	.	.
4r	4r	8ee\	.	.
.	.	8dd\J	.	.
2r	2r	8cc/L	.	.
.	.	8b/	.	.
.	.	8a/	.	.
.	.	8g/J)	.	.
!!LO:PB:g=original
=13	=13	=13	=13	=13
4F 4FF/	4dd 4a 4f/	(8dd\L	.	.
.	.	8ee\	.	.
4r	4r	8dd\	.	.
.	.	8ee\J	.	.
4F 4FF/	4ff 4dd 4a\	8ff\L	.	.
.	.	8gg\	.	.
4r	4r	8ff\	.	.
.	.	8gg\J)	.	.
=14	=14	=14	=14	=14
4F 4FF/	4aa 4ff 4dd 4a\	(8aa\L	.	.
.	.	8gg\	.	.
4r	4r	8ff\	.	.
.	.	8ee\J	.	.
2r	2r	8dd\L	.	.
.	.	8cc\	.	.
.	.	8b\	.	.
.	.	8a\J)	.	.
=15	=15	=15	=15	=15
4G 4GG\	4g 4e 4c/	(8g\L	.	.
.	.	8cc\	.	.
4r	4r	8ee\	.	.
.	.	8gg\J	.	.
2r	2r	8aa\L	.	.
.	.	8gg\	.	.
.	.	8ee\	.	.
.	.	8cc\J)	.	.
=16	=16	=16	=16	=16
4G 4GG\	4b 4g 4f 4d/	(8g\L	.	.
.	.	8b\	.	.
4r	4r	8dd\	.	.
.	.	8gg\J	.	.
2r	2r	8aa\L	.	.
.	.	8gg\	.	.
.	.	8ff\	.	.
.	.	8dd\J)	.	.
!!LO:LB:g=original
=17	=17	=17	=17	=17
4c 4C\	4cc 4g 4e/	(8cc|\L	.	.
.	.	8cc\	.	.
4r	4r	8b\	.	.
.	.	8cc\J	.	.
2r	2r	8ee\L	.	.
.	.	8cc\	.	.
.	.	8g\	.	.
.	.	8e\J)	.	.
=18	=18	=18	=18	=18
4C 4CC\	4c 4G< 4E</	4c/	.	.
4r	4r	4r	.	.
2r	2r	2r	.	.
==	==	==	==	==
*-	*-	*-	*-	*-
!!!system-decoration: s1{(s2,s3)}
!!!RDF**kern: > = above
!!!RDF**kern: < = below
!!!RDF**kern: | = vertical stroke
!!!AIN: 2 forte 1 tenor
!!!ENC: Marta Lawrence
!!!END: 2021-06-03
!!!ENC: Andrzej Gręziak
!!!END: 2021-05-17
